X:28
T:GB/7a/28 Banks of Sweet Primroses, The
%%VWML:GB-7a-28-0
F:http://www.vwml.org/record/GB/7a/28
T:Version 1 of 2
C:Battle Workhouse, Sussex, IV. 07
C:Transcribed by Simon Furey and Lewis Jones
L:1/8
M:3/2
I:linebreak $
K:G
D2 | G2 D2 G6 AB | cBAG G4 D2 B2 | d2 e2 d4 G3 E | F2 G2 A4 z2 AB |$"^(a)" cded d4 G3 A | B2 A2 G4 D2 A2 | GFED G2 B2 d2 c2 | B2 A2 G6 |]$"^(a) var." c2 e2 d4 G3 A |

